!! George Gerswhin, "A Foggy Day" from
!! "Bumper Book of George Gerswhin,"
!! London: Chappell Music Ltd., 1987; pp.90-93
**kern
*M2/2
*MM[Moderato]
=1
!! Verse
4a
8b-
8cc
8dd
8cc
8b-
8a
=2
8g
[4.g
2g]
=3
4a
4a
4a
8g
8f
=4
8d
8d
4d
2d
=5
4a
8b-
8cc
8dd
8cc
8b-
8a
=6
8g#
[4.g#
4g#]
8e
8e
=7
4e
8e
8e
4e
8e
8e
=8
2.bn
4b
!! page 91
=9
8dd
8b-
8d
8f
8a
8a
4g#
=10
[2a
8a]
8f
8gn
8a
=11
4bn
8a
8a
4b
4a
=12
4bn
4a
4.b
8a
=13
8bn
4b
8a
4b
4a
=14
4cc
4a
4cc
4a
=15
[1f
=16
4f_
8f]
8r
4r
!! Refrain
4c
=17
4c
2c
[4e-
=18
2.e-]
4e-
=19
4d
2d
[4a
=20
1a]
=21
2f
4f
[4a-
=22
2.a-]
4a-
=23
2g
4g
[4dd
!! page 92
=24
1dd]
=25
4r
4ee
4ee
4ee
=26
4cc
2.cc
=27
2a
4a
[4f
=28
2.f]
4f
=29
4a
4a
4a
[4cc
=30
4cc]
2cc
4cc
=31
2a
4a
[4d
=32
2.d]
4c
=33
2c
4c
[4e-
=34
4e-]
2e-
4e-
=35
2d
4d
[4a
=36
2a]
4a
4a
=37
2f
4f
[4a-
=38
4a-]
4b-
2a-
=39
2g
4g
[4dd
!! page 93
=40
2.dd]
4dd
=41
2ff
4ff
[4dd
=42
2.dd]
4dd
=43
2cc
4cc
[4a
=44
2a]
4a
4b-
=45
4cc
4f
4g
4b-
=46
4a
4f
4g
4b-
=47
2a
2ff
=48
2f
8a
4.g
=49
!! First ending
1f
=50
2r
4r
4c
!! Repeat refrain.
=17
4c
2c
[4e-
=18
2.e-]
4e-
=19
4d
2d
[4a
=20
1a]
=21
2f
4f
[4a-
=22
2.a-]
4a-
=23
2g
4g
[4dd
!! page 92
=24
1dd]
=25
4r
4ee
4ee
4ee
=26
4cc
2.cc
=27
2a
4a
[4f
=28
2.f]
4f
=29
4a
4a
4a
[4cc
=30
4cc]
2cc
4cc
=31
2a
4a
[4d
=32
2.d]
4c
=33
2c
4c
[4e-
=34
4e-]
2e-
4e-
=35
2d
4d
[4a
=36
2a]
4a
4a
=37
2f
4f
[4a-
=38
2a-]
4b-
4a-
=39
2g
4g
[4dd
!! page 93
=40
2.dd]
4dd
=41
2ff
4ff
[4dd
=42
2.dd]
4dd
=43
2cc
4cc
[4a
=44
2a]
4a
4b-
=45
4cc
4f
4g
4b-
=46
4a
4f
4g
4b-
=47
2a
2ff
=48
2f
8a
4.g
=49
!! Second ending
[1f
=50
1f_
=51
2f_
4f]
4r
====
*-
